X: 42099
T: Wandering Road, The
R: slip jig
M: 9/8
K: Aminor
CFA cAB BGD|BGA EGD ECA,|A,CD EGA AGA|GED CEA, A,CD|
A2C cAB BGD|BGA EGD ECA,|A,DE GEA AGA|DGA Bde gde|

